X:607
T:The Low Backed Car
C:Traditional American
S:Colin Hume's website,  colinhume.com  - chords can also be printed below the stave.
Q:3/8=120
M:6/8
L:1/8
R:Jig
K:A
|: E | "A"A2c e2f | "A"ecA "E7"B3 | "A"A2c e2f | "A"e3 ABc |\
"Bm"d2B Bcd | "A"c2A ABc | "E7"B2G E2E | "A"A3 A2 :|
A | "D"A2d d2f | "A"f2e ecA | "D"d2e f=gf | "A"e3 c2B |\
"A"A2a a2g | "F#m"f2e c2A | "Bm"B2A B2c | "E7"d3 dcB ||
"A"A2z E2z | "A"A2z cBA | "E7"B2z E2z | "E7"B2z Bcd |\
"A"efe ece | "D"agf "A"ecA | "Bm"BcB "E7"A2G | "A"A3 A2 |]

